X: 160
T:Culloden's Fancy
M:2/4
L:1/8
K:G
B/2c/2|"G"d2 "D7"c2|"G"BG GA/2B/2|"Am"cA Af/2g/2|"D"aA AB/2c/2|"G"d2 "D7
"c2|!
"G"BGGg|"D"fg"D7"dc|"G"BG G :||: e/2f/2|"G"gd dB|"G"gd dB|!
"G"gd dB|"D7"cA Ac|"G"Bd de|"C"ef "D"fg|"D"af "D7"gc|"G"BG G:||
% <A name="D1X161">
